X: 5617
T: Butterclout, The
R: reel
M: 4/4
K: Dmajor
d2 dB AFED|EFGA B2 A B/c/|d2 dB AFED|Bgfe d2 D2:|
df a2 ce g2|Bged c2 BA|df a2 ce g2|df a2 ce g2|Bgec d2 D2|
df a2 ce g2|Bged cBA f/g/|afge fdec|Agfe d2 D2||

